X:55
T:Little Fan Down in our Village. WHG.054
R:song
S:W.H.Giles MS,Bampton,Oxfordshire,1839p56
O:England
H:donated by Mrs W.R.Kettlewell to VWML,Apr 1927.
A:Bampton, Oxfordshire
N:1st note of bar 5 is G in MS. No TS in MS.
Z:PJHeadford – VMP 2009
M:3/4
L:1/8
Q:1/4=60
K:G
D|G B d {c}BG2|c eE3G|F A D FA2|B2G2zG|
G< B d> BG2|B2e2|D3G|F A D FA2|B2G2||
B/c/|d e d/B/z2B/c/|d e d3B|B d e dc2|Bd2zD|
G B d> {d}B G2|c e A3 G|F A D F A2|B2 G2||
D|D2D B2B/G/|F A2z2G|G GB3d/B/|B2d2zD|
G Be> {d}BG2|c eD2G2|F A D DA2|B2G2|]

